assets/images/vector/icons/half_dotted_check_icon.svg

<svg fill="none" height="59" viewBox="0 0 56 59" width="56" xmlns="http://www.w3.org/2000/svg"><path d="m26.666 5c13.3467 0 24.1667 10.82 24.1667 24.1667 0 13.3466-10.82 24.1666-24.1667 24.1666" stroke="#111" stroke-linecap="round" stroke-linejoin="round" stroke-width="10"/><path d="m15.834 30 7.5 8.3333 14.1667-18.3333" stroke="#111" stroke-linecap="round" stroke-linejoin="round" stroke-width="10"/><g fill="#111"><path d="m9.57617 48.7568c1.38073 0 2.50003-1.1193 2.50003-2.5s-1.1193-2.5-2.50003-2.5c-1.38071 0-2.5 1.1193-2.5 2.5s1.11929 2.5 2.5 2.5z"/><path d="m2.5 31.6667c1.38071 0 2.5-1.1192 2.5-2.5 0-1.3807-1.11929-2.5-2.5-2.5s-2.5 1.1193-2.5 2.5c0 1.3808 1.11929 2.5 2.5 2.5z"/><path d="m9.57617 14.5767c1.38073 0 2.50003-1.1193 2.50003-2.5 0-1.3808-1.1193-2.50004-2.50003-2.50004-1.38071 0-2.5 1.11924-2.5 2.50004 0 1.3807 1.11929 2.5 2.5 2.5z"/><path d="m17.4199 53.9934c1.3807 0 2.5-1.1193 2.5-2.5s-1.1193-2.5-2.5-2.5-2.5 1.1193-2.5 2.5 1.1193 2.5 2.5 2.5z"/><path d="m4.33984 40.9133c1.38072 0 2.5-1.1193 2.5-2.5s-1.11928-2.5-2.5-2.5c-1.38071 0-2.5 1.1193-2.5 2.5s1.11929 2.5 2.5 2.5z"/><path d="m4.33984 22.4202c1.38072 0 2.5-1.1193 2.5-2.5s-1.11928-2.5-2.5-2.5c-1.38071 0-2.5 1.1193-2.5 2.5s1.11929 2.5 2.5 2.5z"/><path d="m17.4199 9.34009c1.3807 0 2.5-1.11929 2.5-2.5s-1.1193-2.5-2.5-2.5-2.5 1.11929-2.5 2.5 1.1193 2.5 2.5 2.5z"/></g></svg>

<svg width="56" height="59" viewBox="0 0 56 59" fill="none" xmlns="http://www.w3.org/2000/svg">
<path d="M26.666 5C40.0127 5 50.8327 15.82 50.8327 29.1667C50.8327 42.5133 40.0127 53.3333 26.666 53.3333" stroke="#111111" stroke-width="10" stroke-linecap="round" stroke-linejoin="round"/>
<path d="M15.834 30L23.334 38.3333L37.5007 20" stroke="#111111" stroke-width="10" stroke-linecap="round" stroke-linejoin="round"/>
<path d="M9.57617 48.7568C10.9569 48.7568 12.0762 47.6375 12.0762 46.2568C12.0762 44.8761 10.9569 43.7568 9.57617 43.7568C8.19546 43.7568 7.07617 44.8761 7.07617 46.2568C7.07617 47.6375 8.19546 48.7568 9.57617 48.7568Z" fill="#111111"/>
<path d="M2.5 31.6667C3.88071 31.6667 5 30.5475 5 29.1667C5 27.786 3.88071 26.6667 2.5 26.6667C1.11929 26.6667 0 27.786 0 29.1667C0 30.5475 1.11929 31.6667 2.5 31.6667Z" fill="#111111"/>
<path d="M9.57617 14.5767C10.9569 14.5767 12.0762 13.4574 12.0762 12.0767C12.0762 10.6959 10.9569 9.57666 9.57617 9.57666C8.19546 9.57666 7.07617 10.6959 7.07617 12.0767C7.07617 13.4574 8.19546 14.5767 9.57617 14.5767Z" fill="#111111"/>
<path d="M17.4199 53.9934C18.8006 53.9934 19.9199 52.8741 19.9199 51.4934C19.9199 50.1127 18.8006 48.9934 17.4199 48.9934C16.0392 48.9934 14.9199 50.1127 14.9199 51.4934C14.9199 52.8741 16.0392 53.9934 17.4199 53.9934Z" fill="#111111"/>
<path d="M4.33984 40.9133C5.72056 40.9133 6.83984 39.794 6.83984 38.4133C6.83984 37.0326 5.72056 35.9133 4.33984 35.9133C2.95913 35.9133 1.83984 37.0326 1.83984 38.4133C1.83984 39.794 2.95913 40.9133 4.33984 40.9133Z" fill="#111111"/>
<path d="M4.33984 22.4202C5.72056 22.4202 6.83984 21.3009 6.83984 19.9202C6.83984 18.5395 5.72056 17.4202 4.33984 17.4202C2.95913 17.4202 1.83984 18.5395 1.83984 19.9202C1.83984 21.3009 2.95913 22.4202 4.33984 22.4202Z" fill="#111111"/>
<path d="M17.4199 9.34009C18.8006 9.34009 19.9199 8.2208 19.9199 6.84009C19.9199 5.45938 18.8006 4.34009 17.4199 4.34009C16.0392 4.34009 14.9199 5.45938 14.9199 6.84009C14.9199 8.2208 16.0392 9.34009 17.4199 9.34009Z" fill="#111111"/>
</svg>
